X: 33
%%scale 0.7
T: Sir Roger de Coverley 1
C: Traditional
O: England
R: slip jig
M: 9/8
L: 1/8
K: Dmaj
|:"D" d2d d2B AFD|"Em" B2e efd "A" cBA|"D" d2d d2B ABc|d2d ded "A" cBA:|
|:"D" AFA "G" BGB "D" AFD|"Em" Bcd efd "A" cBA|"D" AFA "G" BGB "A" cAc|"D" d2d ded "A" cBA:|
|:"D" agf "A" gfe "D" fed|"A" cde efg gfe|"D" agf "A" gfe "D" fed|d2d ded "A" cBA:|

